X: 51
T: 51. Gelobet seist du, Jesu Christ
N: Derived from chor051.krn
C: Johann Sebastian Bach
%%abc-version 2.0
%%abcx-abcm2ps-target-version 5.9.1 (29 Sep 2008)
%%abc-creator hum2abc beta
%%abcx-conversion-date 2019/03/11 17:28:17
%%abc-edited-by Craig Stuart Sapp
%%humdrum-veritas 875795336
%%humdrum-veritas-data 1921389680
%%
%%barnumbers 0
L: 1/8
M: C
%%staves [1 2 3 4]
V: 1 clef=treble
V: 2 clef=treble
V: 3 clef=treble-8
V: 4 clef=bass
K: G
[V:1] G2 [I:setbarnb 1]| 
[V:2] D2 | 
[V:3] B2 | 
[V:4] G,F, | 
[V:1] G2G2A2G2 | 
[V:2] E2DEF2E2 | 
[V:3] c2B2AdB2 | 
[V:4] E,F,G,2D,2E,D, | 
[V:1] c2d2!fermata!c4 | 
[V:2] G2G=F!fermata!E4 | 
[V:3] ecB2!fermata!G4 | 
[V:4] C,2G,,2!fermata!C,4 | 
[V:1] Bcd2e2dc | 
[V:2] GAB2cBA2 | 
[V:3] e2=f2g2d2 | 
[V:4] E,2D,2C,2F,,2 | 
[V:1] B2A2!fermata!G2G2 | 
[V:2] G2F2!fermata!D2DE | 
[V:3] d2dc!fermata!B2G2 | 
[V:4] G,,B,,D,2!fermata!G,,2B,,2 | 
[V:1] c2Bcd2A2 | 
[V:2] F2G2G2FE | 
[V:3] A2dc BGd2 | 
[V:4] A,,2G,,A,, B,,C, D,C, | 
[V:1] GFE2!fermata!D2D2 | 
[V:2] DB,^C2!fermata!A,2A,2 | 
[V:3] d2AG!fermata!F2FG | 
[V:4] B,,G,,A,,2!fermata!D,,2D,E, | 
[V:1] A2A2A2B2 | 
[V:2] D2^C2F2G2 | 
[V:3] AB ^ced2d2 | 
[V:4] F,G, A,^C, D,=C,B,,2 | 
[V:1] =cBA2GAB2 | 
[V:2] AG GF EA DE | 
[V:3] eded dcB^c | 
[V:4] A,,B,,C,D, E,F, G,G,, | 
[V:1] !fermata!A4G2G2 | 
[V:2] !fermata!F4DE=F2 | 
[V:3] !fermata!d4d2B2 | 
[V:4] !fermata!D,4B,,A,,G,,2 | 
[V:1] G4!fermata!G2 |]  
[V:2] E4!fermata!D2 |]  
[V:3] G2c2!fermata!B2 |]  
[V:4] C,E,/D,/ C,C,,!fermata!G,,2 |]  



